X: 39547
T: Tea In The Morning
R: slip jig
M: 9/8
K: Gmajor
|:d2G GFG/A/ B3|G2d d2G ABc|d2G GFG/A/ B3|edB AGF ABc:|
|:ded c2d B3|G2d d2G ABc|ded c2d B2c|dcB AGF ABc|
ded c2d B3|G2d d2G ABc|d2g fdc B2c|dcB AGF ABc:|

